icons/type-icons/icons/text-x-po.svg

<?xml version="1.0" encoding="UTF-8"?><svg width="22" height="22" version="1.1" xmlns="http://www.w3.org/2000/svg">
 <g id="layer1" transform="translate(-326 -534.36)" fill="#22a7f0">
  <path id="rect4156" transform="translate(326 534.36)" d="m3 3v8h8v3l3-3v-8h-11zm1 1h9v6h-9v-6z"/>
  <path id="rect4156-9" transform="translate(326 534.36)" d="m13 7v1h5v6h-9v-4h-1v5l4 4v-4h7v-8h-6z"/>
 </g>
</svg>

<?xml version="1.0" encoding="UTF-8" standalone="no"?>

<!-- Created with Inkscape (http://www.inkscape.org/) -->
<svg width="22" version="1.1" xmlns="http://www.w3.org/2000/svg" height="22" xmlns:inkscape="http://www.inkscape.org/namespaces/inkscape">
 <defs id="defs3871"/>
 <metadata id="metadata3874"/>
 <g inkscape:label="Capa 1" inkscape:groupmode="layer" id="layer1" transform="matrix(1 0 0 1 -326 -534.3622)">
  <path style="fill:#22a7f0" id="rect4156" d="M 3 3 L 3 11 L 11 11 L 11 14 L 14 11 L 14 3 L 3 3 z M 4 4 L 13 4 L 13 10 L 4 10 L 4 4 z " transform="matrix(1 0 0 1 326 534.3622)"/>
  <path style="fill:#22a7f0" id="rect4156-9" d="M 13 7 L 13 8 L 18 8 L 18 14 L 9 14 L 9 10 L 8 10 L 8 15 L 12 19 L 12 15 L 19 15 L 19 7 L 13 7 z " transform="matrix(1 0 0 1 326 534.3622)"/>
 </g>
</svg>
